images/sprite/icon-phone.svg

<svg width="24" height="24" viewBox="0 0 24 24" fill="none" xmlns="http://www.w3.org/2000/svg">
<path d="M17.6335 15.5449L17.6335 15.5449L17.638 15.5464C19.0568 16.0153 20.5526 16.2533 22.0742 16.2533C22.8599 16.2533 23.5 16.8933 23.5 17.679V22.0742C23.5 22.8599 22.8599 23.5 22.0742 23.5C10.1785 23.5 0.5 13.8215 0.5 1.92581C0.5 1.14008 1.14008 0.5 1.92581 0.5H6.3333C7.11902 0.5 7.75909 1.14007 7.75904 1.92585V1.92587C7.75904 3.44705 7.9974 4.94078 8.46725 6.3653C8.63107 6.89113 8.49277 7.44455 8.11279 7.82402L8.08531 7.85147L8.0624 7.88282L7.09627 9.20501L6.91158 9.45777L7.05828 9.73432C8.75308 12.9291 11.0479 15.2241 14.2645 16.9411L14.5429 17.0897L14.7968 16.9024L16.1893 15.875L16.2222 15.8508L16.2508 15.8215C16.3728 15.6961 16.5862 15.5771 16.8551 15.5169C17.1206 15.4574 17.3989 15.4648 17.6335 15.5449Z" stroke="white"/>
</svg>

<svg xmlns="http://www.w3.org/2000/svg" width="24" height="24" fill="none"><path stroke="#fff" d="m17.634 15.545.004.001c1.419.47 2.915.707 4.436.707.786 0 1.426.64 1.426 1.426v4.395c0 .786-.64 1.426-1.426 1.426C10.178 23.5.5 13.822.5 1.926.5 1.14 1.14.5 1.926.5h4.407c.786 0 1.426.64 1.426 1.426 0 1.521.238 3.015.708 4.44a1.44 1.44 0 0 1-.354 1.458l-.028.027-.023.032-.966 1.322-.184.253.146.276c1.695 3.195 3.99 5.49 7.207 7.207l.278.149.254-.188 1.392-1.027.033-.024.029-.03c.122-.125.335-.244.604-.304.266-.06.544-.052.779.028Z"/></svg>
